X:157
T:157  Jack Upon The Green     (E/J)
M:9/8
S:James Winder Ms, Lancashire, 1835-41
A:Wyresdale,Lancashire
S: song in the Bodleian Collection
H:1/8
Z:vmp.Chris Partington, Aug 2004
K:G
D|G2G A2A B/c/dB|G2G A2A B2A|G2G A2A B/c/dB|g2d B2c d2:|
|: f|g2g g2f e2d|a2a a2g f2e/f/|g2g g2f e2f |g2d d2c B2:|





%wordsfont Times-Roman 13.0
%vocalfont Times-Roman 13.0
